lib/flags/na-namibia.svg

<svg xmlns="http://www.w3.org/2000/svg" fill="none" aria-hidden="true" viewBox="0 0 42 30"><g id="Country=NA - Namibia, Size=sm (36x24)" filter="url(#filter0_dd_91_26209)"><g clip-path="url(#clip0_91_26209)"><g id="flag"><mask id="mask0_91_26209" width="36" height="24" x="3" y="2" maskUnits="userSpaceOnUse" style="mask-type:alpha"><rect id="mask" width="36" height="24" x="3" y="2" fill="white"/></mask><g mask="url(#mask0_91_26209)"><g id="contents"><path id="background" fill="#009933" fill-rule="evenodd" d="M3 2V26H39V2H3Z" clip-rule="evenodd"/><mask id="mask1_91_26209" width="36" height="24" x="3" y="2" maskUnits="userSpaceOnUse" style="mask-type:alpha"><path id="background_2" fill="white" fill-rule="evenodd" d="M3 2V26H39V2H3Z" clip-rule="evenodd"/></mask><g mask="url(#mask1_91_26209)"><path id="background_3" fill="#3195F9" fill-rule="evenodd" d="M3 2V26L39 2H3Z" clip-rule="evenodd"/><g id="marks"><path id="Path 14" fill="#E31D1C" stroke="#F7FCFF" stroke-width="2" d="M1.99645 29.1379L2.51791 29.9776L3.36366 29.4659L42.5495 5.75658L43.3533 5.27024L42.918 4.43768L40.2834 -0.601503L39.7949 -1.53591L38.8877 -0.998608L-0.887508 22.5579L-1.76617 23.0783L-1.22748 23.9458L1.99645 29.1379Z"/><path id="Star 19" fill="#FECA00" fill-rule="evenodd" d="M10.0085 11.2449L8.55267 12.8595L8.20002 10.8142L6.03105 11.5654L6.8761 9.63739L4.5752 9.32392L6.39151 8.02982L4.5752 6.73573L6.8761 6.42226L6.03105 4.49429L8.20002 5.24545L8.55267 3.2002L10.0085 4.8147L11.4644 3.2002L11.817 5.24545L13.986 4.49429L13.141 6.42226L15.4419 6.73573L13.6255 8.02982L15.4419 9.32392L13.141 9.63739L13.986 11.5654L11.817 10.8142L11.4644 12.8595L10.0085 11.2449ZM10.0085 10.5298C11.5618 10.5298 12.821 9.41054 12.821 8.02982C12.821 6.64911 11.5618 5.52982 10.0085 5.52982C8.45523 5.52982 7.19603 6.64911 7.19603 8.02982C7.19603 9.41054 8.45523 10.5298 10.0085 10.5298ZM12.2584 8.02983C12.2584 9.1344 11.2511 10.0298 10.0084 10.0298C8.7658 10.0298 7.75844 9.1344 7.75844 8.02983C7.75844 6.92526 8.7658 6.02983 10.0084 6.02983C11.2511 6.02983 12.2584 6.92526 12.2584 8.02983Z" clip-rule="evenodd"/></g></g></g></g></g></g></g><defs><filter id="filter0_dd_91_26209" width="42" height="30" x="0" y="0" color-interpolation-filters="sRGB" filterUnits="userSpaceOnUse"><feFlood flood-opacity="0" result="BackgroundImageFix"/><feColorMatrix in="SourceAlpha" result="hardAlpha" values="0 0 0 0 0 0 0 0 0 0 0 0 0 0 0 0 0 0 127 0"/><feOffset dy="1"/><feGaussianBlur stdDeviation="1"/><feColorMatrix values="0 0 0 0 0.0627451 0 0 0 0 0.0941176 0 0 0 0 0.156863 0 0 0 0.06 0"/><feBlend in2="BackgroundImageFix" result="effect1_dropShadow_91_26209"/><feColorMatrix in="SourceAlpha" result="hardAlpha" values="0 0 0 0 0 0 0 0 0 0 0 0 0 0 0 0 0 0 127 0"/><feOffset dy="1"/><feGaussianBlur stdDeviation="1.5"/><feColorMatrix values="0 0 0 0 0.0627451 0 0 0 0 0.0941176 0 0 0 0 0.156863 0 0 0 0.1 0"/><feBlend in2="effect1_dropShadow_91_26209" result="effect2_dropShadow_91_26209"/><feBlend in="SourceGraphic" in2="effect2_dropShadow_91_26209" result="shape"/></filter><clipPath id="clip0_91_26209"><rect width="36" height="24" x="3" y="2" fill="white" rx="2"/></clipPath></defs></svg>

<svg xmlns="http://www.w3.org/2000/svg" fill="none" aria-hidden="true" viewBox="0 0 42 30"><g filter="url(#a)"><g clip-path="url(#b)"><mask id="c" width="36" height="24" x="3" y="2" maskUnits="userSpaceOnUse" style="mask-type:alpha"><path fill="#fff" d="M3 2h36v24H3z"/></mask><g mask="url(#c)"><path fill="#093" fill-rule="evenodd" d="M3 2v24h36V2H3Z" clip-rule="evenodd"/><mask id="d" width="36" height="24" x="3" y="2" maskUnits="userSpaceOnUse" style="mask-type:alpha"><path fill="#fff" fill-rule="evenodd" d="M3 2v24h36V2H3Z" clip-rule="evenodd"/></mask><g mask="url(#d)"><path fill="#3195F9" fill-rule="evenodd" d="M3 2v24L39 2H3Z" clip-rule="evenodd"/><path fill="#E31D1C" stroke="#F7FCFF" stroke-width="2" d="m1.996 29.138.522.84.846-.512 39.185-23.71.804-.486-.435-.832-2.635-5.04-.488-.934-.907.537L-.888 22.558l-.878.52.539.868 3.223 5.192Z"/><path fill="#FECA00" fill-rule="evenodd" d="M10.008 11.245 8.553 12.86 8.2 10.814l-2.169.751.845-1.928-2.3-.313L6.391 8.03 4.575 6.736l2.301-.314-.845-1.928 2.169.751.353-2.045 1.455 1.615L11.464 3.2l.353 2.045 2.169-.75-.845 1.927 2.3.314-1.816 1.294 1.817 1.294-2.301.313.845 1.928-2.169-.75-.353 2.045-1.456-1.615Zm0-.715c1.554 0 2.813-1.12 2.813-2.5s-1.26-2.5-2.813-2.5c-1.553 0-2.812 1.12-2.812 2.5s1.26 2.5 2.813 2.5Zm2.25-2.5c0 1.104-1.007 2-2.25 2-1.242 0-2.25-.896-2.25-2 0-1.105 1.008-2 2.25-2 1.243 0 2.25.895 2.25 2Z" clip-rule="evenodd"/></g></g></g></g><defs><clipPath id="b"><rect width="36" height="24" x="3" y="2" fill="#fff" rx="2"/></clipPath><filter id="a" width="42" height="30" x="0" y="0" color-interpolation-filters="sRGB" filterUnits="userSpaceOnUse"><feFlood flood-opacity="0" result="BackgroundImageFix"/><feColorMatrix in="SourceAlpha" result="hardAlpha" values="0 0 0 0 0 0 0 0 0 0 0 0 0 0 0 0 0 0 127 0"/><feOffset dy="1"/><feGaussianBlur stdDeviation="1"/><feColorMatrix values="0 0 0 0 0.0627451 0 0 0 0 0.0941176 0 0 0 0 0.156863 0 0 0 0.06 0"/><feBlend in2="BackgroundImageFix" result="effect1_dropShadow_91_26209"/><feColorMatrix in="SourceAlpha" result="hardAlpha" values="0 0 0 0 0 0 0 0 0 0 0 0 0 0 0 0 0 0 127 0"/><feOffset dy="1"/><feGaussianBlur stdDeviation="1.5"/><feColorMatrix values="0 0 0 0 0.0627451 0 0 0 0 0.0941176 0 0 0 0 0.156863 0 0 0 0.1 0"/><feBlend in2="effect1_dropShadow_91_26209" result="effect2_dropShadow_91_26209"/><feBlend in="SourceGraphic" in2="effect2_dropShadow_91_26209" result="shape"/></filter></defs></svg>
